X:1
T:Gavotte 1
C:Thoinot Arbeau - Michael Praetorius
M:C|
L:1/4
K:G
|: c B A B | G>A B G | c B A d | G2 G2 :|
|: G A B c | d2 d2 | e/f/ g f e | d2 d2 :|
|: c B A B | G>A B G | c B A d | G2 G2 :|
